X: 1
T: Woodchopper's Reel
I: RJ R-73 D reel
M: C|
R: reel
K: D
|:\
"D"afdB AdFA | DFAd f2ef | "A"(3gfe cB Ace [1,3 g | a^gab a2f=g :|[2,4 c | "D"dfec d4 :|
|:\
"D"DFAd (3BdB AF | DFAd (3BdB Az | "A"A,CEA ceaf |[1,3 gfed cBAF :|2,4 (3gfe cA "D"d4 :|


